assets/icons/utility/chart.svg

<?xml version="1.0"?><svg xmlns="http://www.w3.org/2000/svg" width="52" height="52" viewBox="0 0 52 52"><g fill="#fff"><path d="m45.5 23.4l-20.5 11.3c-1.4 0.7-3-0.3-3-1.8v-24.5c0-1-1-1.8-1.9-1.5-10 2.8-17.2 12.5-16 23.6 1.1 10.1 9.2 18.3 19.4 19.4 13.3 1.4 24.5-8.9 24.5-21.9 0-1.2-0.1-2.4-0.3-3.6-0.2-1-1.3-1.5-2.2-1z m-17.8 4.6l19.7-10.5c1.2-0.6 1.6-2.2 0.8-3.3-4.5-6.2-11.5-10.7-19.5-12-1.4-0.3-2.7 0.8-2.7 2.2v22.6c0 0.9 0.9 1.4 1.7 1z"></path></g></svg>

<svg xmlns="http://www.w3.org/2000/svg" x="0px" y="0px"
	 width="52px" height="52px" viewBox="0 0 52 52" enable-background="new 0 0 52 52" xml:space="preserve">
<g>
	<path fill="#FFFFFF" d="M45.5,23.4L25,34.7c-1.4,0.7-3-0.3-3-1.8V8.4c0-1-1-1.8-1.9-1.5c-10,2.8-17.2,12.5-16,23.6
		c1.1,10.1,9.2,18.3,19.4,19.4C36.8,51.3,48,41,48,28c0-1.2-0.1-2.4-0.3-3.6C47.5,23.4,46.4,22.9,45.5,23.4z"/>
	<path fill="#FFFFFF" d="M27.7,28l19.7-10.5c1.2-0.6,1.6-2.2,0.8-3.3C43.7,8,36.7,3.5,28.7,2.2C27.3,1.9,26,3,26,4.4V27
		C26,27.9,26.9,28.4,27.7,28z"/>
</g>
</svg>
